X: 1
T:Bourre  Ribeyrolle 3
M:3/8
L:1/16
K:C
ef|g^fgag=f|e2dcde|fedcdf|edc2ef|\
g^fgag=f|e2dcde|fedBdB|c4:|
|:de|dedcBc|dedcde|fgfedc|Bcd2de|\
dedcBc|dedcde|fgfedB|c2:|
